src/assets/filled/Card.svg

<svg width="24" height="24" viewBox="0 0 24 24"  xmlns="http://www.w3.org/2000/svg">
<path d="M22 7.55002C22 8.21002 21.46 8.75002 20.8 8.75002H3.2C2.54 8.75002 2 8.21002 2 7.55002V7.54002C2 5.25002 3.85 3.40002 6.14 3.40002H17.85C20.14 3.40002 22 5.26002 22 7.55002Z" />
<path d="M2 11.45V16.46C2 18.75 3.85 20.6 6.14 20.6H17.85C20.14 20.6 22 18.74 22 16.45V11.45C22 10.79 21.46 10.25 20.8 10.25H3.2C2.54 10.25 2 10.79 2 11.45ZM8 17.25H6C5.59 17.25 5.25 16.91 5.25 16.5C5.25 16.09 5.59 15.75 6 15.75H8C8.41 15.75 8.75 16.09 8.75 16.5C8.75 16.91 8.41 17.25 8 17.25ZM14.5 17.25H10.5C10.09 17.25 9.75 16.91 9.75 16.5C9.75 16.09 10.09 15.75 10.5 15.75H14.5C14.91 15.75 15.25 16.09 15.25 16.5C15.25 16.91 14.91 17.25 14.5 17.25Z" />
</svg>

<?xml version="1.0" encoding="UTF-8"?>
<svg width="24" height="24" viewBox="0 0 24 24" xmlns="http://www.w3.org/2000/svg">
 <path d="m22 7.55c0 0.66-0.54 1.2-1.2 1.2h-17.6c-0.66 0-1.2-0.54-1.2-1.2v-0.01c0-2.29 1.85-4.14 4.14-4.14h11.71c2.29 0 4.15 1.86 4.15 4.15z"/>
 <path d="m2 11.45v5.01c0 2.29 1.85 4.14 4.14 4.14h11.71c2.29 0 4.15-1.86 4.15-4.15v-5c0-0.66-0.54-1.2-1.2-1.2h-17.6c-0.66 0-1.2 0.54-1.2 1.2zm6 5.8h-2c-0.41 0-0.75-0.34-0.75-0.75s0.34-0.75 0.75-0.75h2c0.41 0 0.75 0.34 0.75 0.75s-0.34 0.75-0.75 0.75zm6.5 0h-4c-0.41 0-0.75-0.34-0.75-0.75s0.34-0.75 0.75-0.75h4c0.41 0 0.75 0.34 0.75 0.75s-0.34 0.75-0.75 0.75z"/>
</svg>
